docs/.vuepress/public/svg/1Password.svg

<?xml version="1.0" encoding="UTF-8" standalone="no"?><!DOCTYPE svg PUBLIC "-//W3C//DTD SVG 1.1//EN" "http://www.w3.org/Graphics/SVG/1.1/DTD/svg11.dtd"><svg width="100%" height="100%" viewBox="0 0 351 66" version="1.1" xmlns="http://www.w3.org/2000/svg" xmlns:xlink="http://www.w3.org/1999/xlink" xml:space="preserve" xmlns:serif="http://www.serif.com/" style="fill-rule:evenodd;clip-rule:evenodd;stroke-linejoin:round;stroke-miterlimit:2;"><rect x="0" y="0" width="350.854" height="65.528" style="fill:#fff;"/><g><path d="M19.311,9.962l0,37.261c0,1.164 0.073,1.382 1.168,1.454l5.982,0.51l0,5.749l-25.607,0l0,-5.748l6.273,-0.51c1.022,-0.073 1.168,-0.364 1.168,-1.455l0,-25.127c0,-1.043 -0.788,-0.87 -6.272,0.979l-2.023,-5.967l12.533,-7.146l6.778,-0Zm24.18,0.225l4.306,-0c5.178,-0 9.483,1.236 9.483,8.222c0,8.222 -5.325,9.313 -10.14,9.313l-3.649,0l0,-17.535Zm5.326,25.32l-5.326,-0l0,11.643c0,1.165 0.074,1.31 1.169,1.455l10.432,0.582l0,5.748l-28.599,0l0,-5.748l4.596,-0.51c1.02,-0.144 1.168,-0.362 1.168,-1.454l0,-37.181c0,-1.091 -0.147,-1.383 -1.168,-1.456l-4.596,-0.509l0,-5.821l24.732,-0c13.498,-0 17.582,7.131 17.582,15.498c0,12.66 -7.659,17.754 -19.99,17.754l0,-0.001Zm40.865,9.825c-1.677,1.236 -4.158,2.62 -6.639,2.62c-2.407,-0 -4.158,-1.092 -4.158,-4.003c0,-2.91 1.532,-4.002 5.835,-4.292l4.962,-0.364l0,6.04l0,-0.001Zm33.538,-13.897c5.763,1.309 12.257,3.347 12.257,11.86c0,8.876 -7.222,12.515 -16.488,12.515c-6,-0 -11.866,-1.424 -13.912,-2.344l0,1.47l-13.425,-0l-0.73,-3.929l-0.365,-0.072c-2.772,2.692 -6.42,4.875 -12.257,4.875c-9.191,-0 -10.652,-6.257 -10.652,-10.77c0,-7.275 4.525,-10.622 13.644,-11.204l8.39,-0.582l0,-4.002c0,-3.42 -0.364,-5.748 -4.889,-5.748c-3.5,-0 -5.325,0.509 -5.325,4.875l-10.288,-0.874c0,-9.822 8.975,-11.206 15.687,-11.206c11.09,-0 15.54,2.985 15.54,13.171l-0,17.681c-0,1.164 0.073,1.31 1.167,1.455l2.969,0.493l0,-6.46l7.806,0.583l0.73,4.147c0.072,0.655 0.22,0.946 0.876,1.091c0.875,0.292 2.845,0.728 5.618,0.728c3.866,-0 6.054,-1.09 6.054,-3.783c-0,-2.91 -2.918,-3.784 -6.638,-4.439c-6.128,-1.091 -14.154,-2.4 -14.154,-11.932c-0,-9.023 7.733,-12.735 16.123,-12.735c5.763,-0 11.381,1.311 13.425,2.11l0,10.551l-7.807,-0.508l-0.73,-3.785c-0.072,-0.582 -0.219,-0.872 -0.728,-1.018c-0.949,-0.29 -2.7,-0.582 -4.67,-0.582c-3.648,-0 -5.691,1.382 -5.691,3.71c0,2.984 4.013,3.638 8.463,4.658Zm212.023,12.66c-1.97,1.674 -4.67,3.129 -7.15,3.129c-4.598,-0 -6.639,-3.93 -6.639,-10.987c0,-6.476 2.115,-11.497 7.515,-11.497c2.114,-0 4.45,0.946 6.274,2.184l0,17.171Zm12.11,4.584l3.501,0.51l0,5.748l-13.57,-0l-0.728,-4.075l-0.511,-0.074c-3.064,2.984 -6.639,5.021 -11.965,5.021c-8.608,-0 -14.153,-5.457 -14.153,-19.354c0,-14.625 7.367,-20.155 15.466,-20.155c4.232,-0 7.514,1.455 10.288,3.493l0,-11.061c0,-0.728 -0.293,-1.237 -0.949,-1.455l-4.013,-1.383l0.802,-5.894l14.665,-0l-0,47.295c-0,1.092 0.073,1.238 1.167,1.383l0,0.001Zm-122.857,-25.249c-1.02,0.145 -1.458,0.51 -1.75,1.455l-8.973,30.05l-11.529,-0l-5.69,-24.373l-0.437,-0l-5.764,24.374l-13.133,-0l-9.193,-30.122c-0.29,-0.874 -0.657,-1.02 -1.532,-1.238l-0.71,-0.151l0,5.535l-7.806,-0.508l-0.73,-3.785c-0.072,-0.582 -0.219,-0.872 -0.728,-1.018c-0.95,-0.29 -2.7,-0.582 -4.67,-0.582c-3.648,-0 -5.692,1.382 -5.692,3.71c0,2.984 4.014,3.64 8.464,4.658c5.763,1.309 12.257,3.347 12.257,11.86c0,8.877 -7.222,12.515 -16.489,12.515c-6.639,-0 -13.132,-1.747 -14.446,-2.62l0,-10.55l7.807,0.582l0.73,4.147c0.072,0.655 0.22,0.946 0.876,1.091c0.875,0.292 2.845,0.728 5.618,0.728c3.865,-0 6.054,-1.09 6.054,-3.783c0,-2.91 -2.918,-3.784 -6.639,-4.439c-6.128,-1.091 -14.153,-2.4 -14.153,-11.932c0,-9.023 7.733,-12.735 16.123,-12.735c4.765,-0 9.426,0.896 12.054,1.659l0.184,-0.93l18.458,-0l0,6.039l-4.086,0.437l5.837,20.445l0.511,-0l6.492,-25.976l11.018,-0l6.275,25.976l0.437,-0l5.472,-20.445l-4.159,-0.437l0.947,-6.039l15.323,-0l0,2.145c-0.911,1.338 -1.712,2.746 -2.396,4.213l-0.232,0.045l0,-0.001Zm75.44,1.819c-1.896,-0 -4.157,1.6 -5.252,2.547l0,19.281c0,1.164 0.074,1.382 1.169,1.456l7.221,0.581l0,5.822l-23.858,-0l0,-5.894l3.285,-0.437c1.02,-0.146 1.166,-0.364 1.166,-1.455l0,-21.32c0,-0.8 -0.219,-1.309 -0.947,-1.527l-3.51,-1.23c-0.113,-0.238 -0.237,-0.468 -0.356,-0.7l0.729,-5.346l12.84,-0l0.875,5.82l0.438,-0c2.407,-3.71 5.618,-6.548 10.287,-6.548c1.677,-0 5.033,0.291 6.347,0.655l0,13.243l-8.754,-0.291l-0.73,-3.857c-0.146,-0.655 -0.365,-0.8 -0.95,-0.8Z" style="fill:#4e5f89;"/><path d="M251.854,11.532c13.255,0 24,10.745 24,24c-0,13.255 -10.745,24 -24,24c-13.255,0 -24,-10.745 -24,-24c-0,-13.255 10.745,-24 24,-24" style="fill:#198cff;"/><path d="M221.854,35.532c0,-16.569 13.431,-30 30,-30c16.569,-0 30,13.431 30,30c-0,16.57 -13.431,30 -30,30c-16.569,-0 -30,-13.43 -30,-30Zm6,-0c-0,13.255 10.745,24 24,24c13.255,-0 24,-10.745 24,-24c-0,-13.255 -10.745,-24 -24,-24c-13.255,-0 -24,10.745 -24,24Z" style="fill:#fff;"/><path d="M220.854,35.532c0,17.121 13.88,31 31,31c17.12,-0 31,-13.879 31,-31c-0,-17.12 -13.88,-31 -31,-31c-17.12,-0 -31,13.88 -31,31Zm1,-0c-0,-16.567 13.43,-30 30,-30c16.57,-0 30,13.433 30,30c-0,16.567 -13.43,30 -30,30c-16.57,-0 -30,-13.433 -30,-30Zm7,-0.002c-0,12.702 10.298,22.998 23,22.998c12.702,-0 23,-10.296 23,-22.998c-0,-12.701 -10.298,-22.998 -23,-22.998c-12.702,0 -23,10.297 -23,22.998Zm-1,0.002c-0,-13.253 10.744,-24 24,-24c13.256,-0 24,10.747 24,24c-0,13.253 -10.743,24 -24,24c-13.257,-0 -24,-10.747 -24,-24Z" style="fill-opacity:0.5;fill-rule:nonzero;"/><path d="M262.174,60.61c9.129,-3.891 15.528,-12.927 15.528,-23.456c0,-14.082 -11.446,-25.498 -25.565,-25.498c-14.119,0 -25.564,11.416 -25.564,25.498c0,14.04 11.378,25.427 25.44,25.494c-0.044,0.001 -0.086,0.004 -0.129,0.004c-14.818,0 -26.83,-11.981 -26.83,-26.76c0,-14.779 12.012,-26.76 26.83,-26.76c14.818,0 26.83,11.981 26.83,26.76c0,11.143 -6.83,20.691 -16.54,24.718Zm-10.808,2.342c16.553,0 29.971,-13.383 29.971,-29.891c0,-1.54 -0.117,-3.052 -0.342,-4.529c0.557,2.278 0.859,4.656 0.859,7.105c0,16.51 -13.419,29.891 -29.971,29.891c-15.01,0 -27.441,-11.003 -29.629,-25.362c3.198,13.077 15.015,22.786 29.112,22.786Z" style="fill-opacity:0.1;"/><path d="M251.854,17.532c9.941,0 18,8.059 18,18c-0,9.941 -8.059,18 -18,18c-9.941,0 -18,-8.059 -18,-18c-0,-9.941 8.059,-18 18,-18Z" style="fill:#f2f2f2;"/><path d="M251.854,17.532c-9.941,0 -18,8.059 -18,18c0,9.941 8.059,18 18,18c9.941,0 18,-8.059 18,-18c-0,-9.941 -8.059,-18 -18,-18Zm-0,-1c10.493,0 19,8.507 19,19c-0,10.494 -8.507,19 -19,19c-10.493,0 -19,-8.506 -19,-19c-0,-10.493 8.507,-19 19,-19Z" style="fill-opacity:0.25;fill-rule:nonzero;"/><path d="M259.854,35.532c0,4.389 -3.611,8 -8,8c-4.389,-0 -8,-3.611 -8,-8c0,-4.389 3.611,-8 8,-8c4.389,-0 8,3.611 8,8Z" style="fill-opacity:0.05;"/><path d="M258.854,35.532c0,-3.84 -3.16,-7 -7,-7c-3.84,-0 -7,3.16 -7,7c0,3.84 3.16,7 7,7c3.84,-0 7,-3.16 7,-7Zm1,-0c0,4.389 -3.611,8 -8,8c-4.389,-0 -8,-3.611 -8,-8c0,-4.389 3.611,-8 8,-8c4.389,-0 8,3.611 8,8Z" style="fill-opacity:0.15;fill-rule:nonzero;"/><path d="M259.854,35.532c0,-4.389 -3.611,-8 -8,-8c-4.389,-0 -8,3.611 -8,8c0,4.389 3.611,8 8,8c4.389,-0 8,-3.611 8,-8Zm1,-0c0,4.937 -4.063,9 -9,9c-4.937,-0 -9,-4.063 -9,-9c0,-4.937 4.063,-9 9,-9c4.937,-0 9,4.063 9,9Z" style="fill:#fff;fill-rule:nonzero;"/><path d="M247.854,31.89l0,-8.358l8,0l0,13.93l-2,1.856l2,1.856l0,8.358l-8,-0l0,-13.929l2,-1.857l-2,-1.856Z" style="fill:#fff;"/><path d="M247.854,30.89l0,-8.358l8,0l0,13.93l-2,1.856l2,1.856l0,8.358l-8,-0l0,-13.929l2,-1.857l-2,-1.856Z" style="fill:#4d4d4d;"/><path d="M248.854,31.747l0,-7.215l6,0l0,12.358l-1.5,1.713l0,1.008l1.5,1.909l0,7.012l-6,-0l0,-12.38l1.5,-1.677l0,-1.014l-1.5,-1.714Z" style="fill:#808080;"/></g></svg>

<?xml version="1.0" encoding="UTF-8" standalone="no"?>
<!DOCTYPE svg PUBLIC "-//W3C//DTD SVG 1.1//EN" "http://www.w3.org/Graphics/SVG/1.1/DTD/svg11.dtd">
<svg width="100%" height="100%" viewBox="0 0 360 75" version="1.1" xmlns="http://www.w3.org/2000/svg" xmlns:xlink="http://www.w3.org/1999/xlink" xml:space="preserve" xmlns:serif="http://www.serif.com/" style="fill-rule:evenodd;clip-rule:evenodd;stroke-linejoin:round;stroke-miterlimit:2;">
    <g transform="matrix(1.02564,0,0,1,-6.21725e-15,-7.10543e-15)">
        <path d="M351,18.75L351,56.25C351,66.598 342.808,75 332.719,75L18.281,75C8.192,75 -0,66.598 -0,56.25L-0,18.75C-0,8.402 8.192,0 18.281,0L332.719,0C342.808,0 351,8.402 351,18.75Z" style="fill:rgb(235,235,235);"/>
    </g>
    <g transform="matrix(1,0,0,1,4.5,4.5)">
        <g transform="matrix(1,0,0,1,2.22045e-15,5.095)">
            <path d="M19.311,9.962L19.311,47.223C19.311,48.387 19.384,48.605 20.479,48.677L26.461,49.187L26.461,54.936L0.854,54.936L0.854,49.188L7.127,48.678C8.149,48.605 8.295,48.314 8.295,47.223L8.295,22.096C8.295,21.053 7.507,21.226 2.023,23.075L-0,17.108L12.533,9.962L19.311,9.962ZM43.491,10.187L47.797,10.187C52.975,10.187 57.28,11.423 57.28,18.409C57.28,26.631 51.955,27.722 47.14,27.722L43.491,27.722L43.491,10.187ZM48.817,35.507L43.491,35.507L43.491,47.15C43.491,48.315 43.565,48.46 44.66,48.605L55.092,49.187L55.092,54.935L26.493,54.935L26.493,49.187L31.089,48.677C32.109,48.533 32.257,48.315 32.257,47.223L32.257,10.042C32.257,8.951 32.11,8.659 31.089,8.586L26.493,8.077L26.493,2.256L51.225,2.256C64.723,2.256 68.807,9.387 68.807,17.754C68.807,30.414 61.148,35.508 48.817,35.508L48.817,35.507ZM89.682,45.332C88.005,46.568 85.524,47.952 83.043,47.952C80.636,47.952 78.885,46.86 78.885,43.949C78.885,41.039 80.417,39.947 84.72,39.657L89.682,39.293L89.682,45.333L89.682,45.332ZM123.22,31.435C128.983,32.744 135.477,34.782 135.477,43.295C135.477,52.171 128.255,55.81 118.989,55.81C112.989,55.81 107.123,54.386 105.077,53.466L105.077,54.936L91.652,54.936L90.922,51.007L90.557,50.935C87.785,53.627 84.137,55.81 78.3,55.81C69.109,55.81 67.648,49.553 67.648,45.04C67.648,37.765 72.173,34.418 81.292,33.836L89.682,33.254L89.682,29.252C89.682,25.832 89.318,23.504 84.793,23.504C81.293,23.504 79.468,24.013 79.468,28.379L69.18,27.505C69.18,17.683 78.155,16.299 84.867,16.299C95.957,16.299 100.407,19.284 100.407,29.47L100.407,47.151C100.407,48.315 100.48,48.461 101.574,48.606L104.543,49.099L104.543,42.639L112.349,43.222L113.079,47.369C113.151,48.024 113.299,48.315 113.955,48.46C114.83,48.752 116.8,49.188 119.573,49.188C123.439,49.188 125.627,48.098 125.627,45.405C125.627,42.495 122.709,41.621 118.989,40.966C112.861,39.875 104.835,38.566 104.835,29.034C104.835,20.011 112.568,16.299 120.958,16.299C126.721,16.299 132.339,17.61 134.383,18.409L134.383,28.96L126.576,28.452L125.846,24.667C125.774,24.085 125.627,23.795 125.118,23.649C124.169,23.359 122.418,23.067 120.448,23.067C116.8,23.067 114.757,24.449 114.757,26.777C114.757,29.761 118.77,30.415 123.22,31.435ZM335.243,44.095C333.273,45.769 330.573,47.224 328.093,47.224C323.495,47.224 321.454,43.294 321.454,36.237C321.454,29.761 323.569,24.74 328.969,24.74C331.083,24.74 333.419,25.686 335.243,26.924L335.243,44.095ZM347.353,48.679L350.854,49.189L350.854,54.937L337.284,54.937L336.556,50.862L336.045,50.788C332.981,53.772 329.406,55.809 324.08,55.809C315.472,55.809 309.927,50.352 309.927,36.455C309.927,21.83 317.294,16.3 325.393,16.3C329.625,16.3 332.907,17.755 335.681,19.793L335.681,8.732C335.681,8.004 335.388,7.495 334.732,7.277L330.719,5.894L331.521,-0L346.186,-0L346.186,47.295C346.186,48.387 346.259,48.533 347.353,48.678L347.353,48.679ZM224.496,23.43C223.476,23.575 223.038,23.94 222.746,24.885L213.773,54.935L202.244,54.935L196.554,30.562L196.117,30.562L190.353,54.936L177.22,54.936L168.027,24.814C167.737,23.94 167.37,23.794 166.495,23.576L165.785,23.425L165.785,28.96L157.979,28.452L157.249,24.667C157.177,24.085 157.03,23.795 156.521,23.649C155.571,23.359 153.821,23.067 151.851,23.067C148.203,23.067 146.159,24.449 146.159,26.777C146.159,29.761 150.173,30.417 154.623,31.435C160.386,32.744 166.88,34.782 166.88,43.295C166.88,52.172 159.658,55.81 150.391,55.81C143.752,55.81 137.259,54.063 135.945,53.19L135.945,42.64L143.752,43.222L144.482,47.369C144.554,48.024 144.702,48.315 145.358,48.46C146.233,48.752 148.203,49.188 150.976,49.188C154.841,49.188 157.03,48.098 157.03,45.405C157.03,42.495 154.112,41.621 150.391,40.966C144.263,39.875 136.238,38.566 136.238,29.034C136.238,20.011 143.971,16.299 152.361,16.299C157.126,16.299 161.787,17.195 164.415,17.958L164.599,17.028L183.057,17.028L183.057,23.067L178.971,23.504L184.808,43.949L185.319,43.949L191.811,17.973L202.829,17.973L209.104,43.949L209.541,43.949L215.013,23.504L210.854,23.067L211.801,17.028L227.124,17.028L227.124,19.173C226.213,20.511 225.412,21.919 224.728,23.386L224.496,23.431L224.496,23.43ZM299.936,25.249C298.04,25.249 295.779,26.849 294.684,27.796L294.684,47.077C294.684,48.241 294.758,48.459 295.853,48.533L303.074,49.114L303.074,54.936L279.216,54.936L279.216,49.042L282.501,48.605C283.521,48.459 283.667,48.241 283.667,47.15L283.667,25.83C283.667,25.03 283.448,24.521 282.72,24.303L279.21,23.073C279.097,22.835 278.973,22.605 278.854,22.373L279.583,17.027L292.423,17.027L293.298,22.847L293.736,22.847C296.143,19.137 299.354,16.299 304.023,16.299C305.7,16.299 309.056,16.59 310.37,16.954L310.37,30.197L301.616,29.906L300.886,26.049C300.74,25.394 300.521,25.249 299.936,25.249Z" style="fill:rgb(78,95,137);"/>
        </g>
        <g>
            <path d="M251.854,11.532C265.109,11.532 275.854,22.277 275.854,35.532C275.854,48.787 265.109,59.532 251.854,59.532C238.599,59.532 227.854,48.787 227.854,35.532C227.854,22.277 238.599,11.532 251.854,11.532" style="fill:rgb(25,140,255);"/>
            <path d="M221.854,35.532C221.854,18.963 235.285,5.532 251.854,5.532C268.423,5.532 281.854,18.963 281.854,35.532C281.854,52.102 268.423,65.532 251.854,65.532C235.285,65.532 221.854,52.102 221.854,35.532ZM227.854,35.532C227.854,48.787 238.599,59.532 251.854,59.532C265.109,59.532 275.854,48.787 275.854,35.532C275.854,22.277 265.109,11.532 251.854,11.532C238.599,11.532 227.854,22.277 227.854,35.532Z" style="fill:white;"/>
            <path d="M220.854,35.532C220.854,52.653 234.734,66.532 251.854,66.532C268.974,66.532 282.854,52.653 282.854,35.532C282.854,18.412 268.974,4.532 251.854,4.532C234.734,4.532 220.854,18.412 220.854,35.532ZM221.854,35.532C221.854,18.965 235.284,5.532 251.854,5.532C268.424,5.532 281.854,18.965 281.854,35.532C281.854,52.099 268.424,65.532 251.854,65.532C235.284,65.532 221.854,52.099 221.854,35.532ZM228.854,35.53C228.854,48.232 239.152,58.528 251.854,58.528C264.556,58.528 274.854,48.232 274.854,35.53C274.854,22.829 264.556,12.532 251.854,12.532C239.152,12.532 228.854,22.829 228.854,35.53ZM227.854,35.532C227.854,22.279 238.598,11.532 251.854,11.532C265.11,11.532 275.854,22.279 275.854,35.532C275.854,48.785 265.111,59.532 251.854,59.532C238.597,59.532 227.854,48.785 227.854,35.532Z" style="fill-opacity:0.5;fill-rule:nonzero;"/>
            <path d="M262.174,60.61C271.303,56.719 277.702,47.683 277.702,37.154C277.702,23.072 266.256,11.656 252.137,11.656C238.018,11.656 226.573,23.072 226.573,37.154C226.573,51.194 237.951,62.581 252.013,62.648C251.969,62.649 251.927,62.652 251.884,62.652C237.066,62.652 225.054,50.671 225.054,35.892C225.054,21.113 237.066,9.132 251.884,9.132C266.702,9.132 278.714,21.113 278.714,35.892C278.714,47.035 271.884,56.583 262.174,60.61ZM251.366,62.952C267.919,62.952 281.337,49.569 281.337,33.061C281.337,31.521 281.22,30.009 280.995,28.532C281.552,30.81 281.854,33.188 281.854,35.637C281.854,52.147 268.435,65.528 251.883,65.528C236.873,65.528 224.442,54.525 222.254,40.166C225.452,53.243 237.269,62.952 251.366,62.952Z" style="fill-opacity:0.1;"/>
            <path d="M251.854,17.532C261.795,17.532 269.854,25.591 269.854,35.532C269.854,45.473 261.795,53.532 251.854,53.532C241.913,53.532 233.854,45.473 233.854,35.532C233.854,25.591 241.913,17.532 251.854,17.532Z" style="fill:rgb(242,242,242);"/>
            <path d="M251.854,17.532C241.913,17.532 233.854,25.591 233.854,35.532C233.854,45.473 241.913,53.532 251.854,53.532C261.795,53.532 269.854,45.473 269.854,35.532C269.854,25.591 261.795,17.532 251.854,17.532ZM251.854,16.532C262.347,16.532 270.854,25.039 270.854,35.532C270.854,46.026 262.347,54.532 251.854,54.532C241.361,54.532 232.854,46.026 232.854,35.532C232.854,25.039 241.361,16.532 251.854,16.532Z" style="fill-opacity:0.25;fill-rule:nonzero;"/>
            <path d="M259.854,35.532C259.854,39.921 256.243,43.532 251.854,43.532C247.465,43.532 243.854,39.921 243.854,35.532C243.854,31.143 247.465,27.532 251.854,27.532C256.243,27.532 259.854,31.143 259.854,35.532Z" style="fill-opacity:0.05;"/>
            <path d="M258.854,35.532C258.854,31.692 255.694,28.532 251.854,28.532C248.014,28.532 244.854,31.692 244.854,35.532C244.854,39.372 248.014,42.532 251.854,42.532C255.694,42.532 258.854,39.372 258.854,35.532ZM259.854,35.532C259.854,39.921 256.243,43.532 251.854,43.532C247.465,43.532 243.854,39.921 243.854,35.532C243.854,31.143 247.465,27.532 251.854,27.532C256.243,27.532 259.854,31.143 259.854,35.532Z" style="fill-opacity:0.15;fill-rule:nonzero;"/>
            <path d="M259.854,35.532C259.854,31.143 256.243,27.532 251.854,27.532C247.465,27.532 243.854,31.143 243.854,35.532C243.854,39.921 247.465,43.532 251.854,43.532C256.243,43.532 259.854,39.921 259.854,35.532ZM260.854,35.532C260.854,40.469 256.791,44.532 251.854,44.532C246.917,44.532 242.854,40.469 242.854,35.532C242.854,30.595 246.917,26.532 251.854,26.532C256.791,26.532 260.854,30.595 260.854,35.532Z" style="fill:white;fill-rule:nonzero;"/>
            <path d="M247.854,31.89L247.854,23.532L255.854,23.532L255.854,37.462L253.854,39.318L255.854,41.174L255.854,49.532L247.854,49.532L247.854,35.603L249.854,33.746L247.854,31.89Z" style="fill:white;"/>
            <path d="M247.854,30.89L247.854,22.532L255.854,22.532L255.854,36.462L253.854,38.318L255.854,40.174L255.854,48.532L247.854,48.532L247.854,34.603L249.854,32.746L247.854,30.89Z" style="fill:rgb(77,77,77);"/>
            <path d="M248.854,31.747L248.854,24.532L254.854,24.532L254.854,36.89L253.354,38.603L253.354,39.611L254.854,41.52L254.854,48.532L248.854,48.532L248.854,36.152L250.354,34.475L250.354,33.461L248.854,31.747Z" style="fill:rgb(128,128,128);"/>
        </g>
    </g>
</svg>
